web/public/images/jest.svg

<svg fill="none" height="42" viewBox="0 0 43 42" width="43" xmlns="http://www.w3.org/2000/svg"><path d="m37.0942 20.7191c-.0014-.9917-.3485-1.952-.9817-2.7153-.6333-.7633-1.5128-1.2818-2.4873-1.4663l4.7171-13.9125h-22.2967l4.725 13.9401c-.8249.1843-1.5761.6103-2.1579 1.2234-.5818.6132-.9677 1.3858-1.1086 2.2192-.1408.8334-.0301 1.6899.3179 2.4602.348.7702.9176 1.4194 1.6361 1.8645-.5936.8818-1.2839 1.6945-2.058 2.4229-1.1984 1.1465-2.6066 2.0512-4.1475 2.6644-.7232-.4198-1.2713-1.0855-1.5446-1.8758-.2732-.7903-.2532-1.6524.0562-2.4292l.0525-.1221.0971-.2297c.8748-.3032 1.6269-.8833 2.1425-1.6523.5155-.769.7665-1.6851.7148-2.6095s-.4032-1.8068-1.0013-2.5135c-.598-.7068-1.4101-1.1994-2.3132-1.4033-.9032-.2038-1.84811-.1079-2.69181.2734-.84369.3813-1.54018 1.0271-1.98397 1.8396-.4438.8126-.61074 1.7476-.47554 2.6635s.56517 1.7628 1.22481 2.4125c-.14175.3032-.29138.6103-.44494.9266-.85098 1.5647-1.46996 3.2448-1.8375 4.9875-.61031 3.675.37406 6.619 2.77069 8.2793 1.28656.92 2.82966 1.4126 4.41126 1.4083 2.7983 0 5.6294-1.4057 8.4-2.7812 1.9359-1.0528 3.9783-1.8967 6.0927-2.5174.7573-.1863 1.5369-.2992 2.3625-.4187 1.6819-.1343 3.3219-.5925 4.83-1.3492.8504-.4858 1.5836-1.1526 2.1477-1.9533.5641-.8006.9453-1.7155 1.1165-2.6798.2788-1.6384-.0432-3.3223-.907-4.7421.4086-.6667.6244-1.4336.6235-2.2155zm-1.6709 0c0 .5114-.1516 1.0113-.4357 1.4365s-.6879.7566-1.1604.9523-.9924.2469-1.4939.1472c-.5016-.0998-.9623-.3461-1.3239-.7077s-.6079-.8223-.7076-1.3238c-.0998-.5016-.0486-1.0215.1471-1.4939.1957-.4725.5271-.8763.9523-1.1604.4252-.2842.9251-.4358 1.4365-.4358.6856.0007 1.3428.2733 1.8276.7581.4847.4847.7573 1.142.758 1.8275zm.5867-16.42329-4.1658 12.28499c-.1784.0432-.3538.098-.525.1641l-4.1147-8.40003-4.1278 8.35013c-.1798-.0623-.3635-.1123-.55-.1496l-4.1514-12.24959zm-14.3154 13.83769c.5114 0 1.0113.1516 1.4365.4358.4252.2841.7566.6879.9523 1.1604.1957.4724.2469.9923.1471 1.4939-.0997.5015-.346.9622-.7076 1.3238s-.8223.6079-1.3239.7077c-.5015.0997-1.0214.0485-1.4939-.1472-.4724-.1957-.8763-.5271-1.1604-.9523s-.4357-.9251-.4357-1.4365c.0007-.6855.2733-1.3428.758-1.8275.4848-.4848 1.1421-.7574 1.8276-.7581zm-11.1851.0249c.5116.0003 1.0116.1523 1.4368.4369s.7563.6889.9517 1.1617c.1953.4729.2459.9931.1454 1.4947-.1004.5017-.3474.9622-.7097 1.3235-.3624.3612-.8237.6068-1.3256.7057-.502.0989-1.02202.0467-1.49428-.15-.47227-.1968-.87556-.5292-1.15882-.9553-.28327-.426-.43377-.9265-.43248-1.4381.0007-.6855.27334-1.3428.75808-1.8275.48475-.4848 1.14201-.7574 1.8275-.7581zm25.2223 9.2322c-.1298.7234-.417 1.4096-.8413 2.0097-.4244.6002-.9755 1.0997-1.6144 1.4631-1.3255.6436-2.7608 1.0306-4.2302 1.1406-.8295.1194-1.6866.2428-2.5252.4502-2.2327.6465-4.389 1.5323-6.4313 2.642-4.1527 2.062-7.7438 3.8431-11.1195 1.5002-2.47669-1.7167-2.3625-4.893-2.07375-6.6333.3398-1.5838.90652-3.1103 1.68262-4.5321l.35438-.7337c.35255.141.72252.2337 1.09985.2756-.33403 1.1799-.24069 2.4399.2636 3.5577.5043 1.1178 1.3871 2.0216 2.4927 2.552l.3215.1654.34-.1208c1.8961-.6844 3.6284-1.7573 5.0859-3.15.9627-.9056 1.8084-1.9281 2.5174-3.0436.9071.1379 1.8345-.0211 2.6438-.4534s1.4572-1.1146 1.8469-1.9453.5004-1.7651.3155-2.6638c-.1848-.8987-.6553-1.7136-1.3412-2.323l2.6749-5.4088 2.7024 5.5125c-.7689.741-1.2309 1.7442-1.2941 2.8102s.2769 2.1168.9528 2.9435c.676.8267 1.6382 1.3689 2.6955 1.5187 1.0573.1499 2.1323-.1036 3.0113-.7099.4874.9838.6505 2.0966.4659 3.1789z" fill="#a86338"/></svg>

<svg width="43" height="42" viewBox="0 0 43 42" fill="none" xmlns="http://www.w3.org/2000/svg">
<path d="M37.0942 20.7191C37.0928 19.7274 36.7457 18.7671 36.1125 18.0038C35.4792 17.2405 34.5997 16.722 33.6252 16.5375L38.3423 2.625H16.0456L20.7706 16.5651C19.9457 16.7494 19.1945 17.1754 18.6127 17.7885C18.0309 18.4017 17.645 19.1743 17.5041 20.0077C17.3633 20.8411 17.474 21.6976 17.822 22.4679C18.17 23.2381 18.7396 23.8873 19.4581 24.3324C18.8645 25.2142 18.1742 26.0269 17.4001 26.7553C16.2017 27.9018 14.7935 28.8065 13.2526 29.4197C12.5294 28.9999 11.9813 28.3342 11.708 27.5439C11.4348 26.7536 11.4548 25.8915 11.7642 25.1147L11.8167 24.9926L11.9138 24.7629C12.7886 24.4597 13.5407 23.8796 14.0563 23.1106C14.5718 22.3416 14.8228 21.4255 14.7711 20.5011C14.7194 19.5767 14.3679 18.6943 13.7698 17.9876C13.1718 17.2808 12.3597 16.7882 11.4566 16.5843C10.5534 16.3805 9.60849 16.4764 8.76479 16.8577C7.9211 17.239 7.22461 17.8848 6.78082 18.6973C6.33702 19.5099 6.17008 20.4449 6.30528 21.3608C6.44048 22.2767 6.87045 23.1236 7.53009 23.7733C7.38834 24.0765 7.23871 24.3836 7.08515 24.6999C6.23417 26.2646 5.61519 27.9447 5.24765 29.6874C4.63734 33.3624 5.62171 36.3064 8.01834 37.9667C9.3049 38.8867 10.848 39.3793 12.4296 39.375C15.2279 39.375 18.059 37.9693 20.8296 36.5938C22.7655 35.541 24.8079 34.6971 26.9223 34.0764C27.6796 33.8901 28.4592 33.7772 29.2848 33.6577C30.9667 33.5234 32.6067 33.0652 34.1148 32.3085C34.9652 31.8227 35.6984 31.1559 36.2625 30.3552C36.8266 29.5546 37.2078 28.6397 37.379 27.6754C37.6578 26.037 37.3358 24.3531 36.472 22.9333C36.8806 22.2666 37.0964 21.4997 37.0955 20.7178L37.0942 20.7191ZM35.4233 20.7191C35.4233 21.2305 35.2717 21.7304 34.9876 22.1556C34.7035 22.5808 34.2997 22.9122 33.8272 23.1079C33.3547 23.3036 32.8348 23.3548 32.3333 23.2551C31.8317 23.1553 31.371 22.909 31.0094 22.5474C30.6478 22.1858 30.4015 21.7251 30.3018 21.2236C30.202 20.722 30.2532 20.2021 30.4489 19.7297C30.6446 19.2572 30.976 18.8534 31.4012 18.5693C31.8264 18.2851 32.3263 18.1335 32.8377 18.1335C33.5233 18.1342 34.1805 18.4068 34.6653 18.8916C35.15 19.3763 35.4226 20.0336 35.4233 20.7191ZM36.01 4.29581L31.8442 16.5808C31.6658 16.624 31.4904 16.6788 31.3192 16.7449L27.2045 8.34487L23.0767 16.695C22.8969 16.6327 22.7132 16.5827 22.5267 16.5454L18.3753 4.29581H36.01ZM21.6946 18.1335C22.206 18.1335 22.7059 18.2851 23.1311 18.5693C23.5563 18.8534 23.8877 19.2572 24.0834 19.7297C24.2791 20.2021 24.3303 20.722 24.2305 21.2236C24.1308 21.7251 23.8845 22.1858 23.5229 22.5474C23.1613 22.909 22.7006 23.1553 22.199 23.2551C21.6975 23.3548 21.1776 23.3036 20.7051 23.1079C20.2327 22.9122 19.8288 22.5808 19.5447 22.1556C19.2606 21.7304 19.109 21.2305 19.109 20.7191C19.1097 20.0336 19.3823 19.3763 19.867 18.8916C20.3518 18.4068 21.0091 18.1342 21.6946 18.1335ZM10.5095 18.1584C11.0211 18.1587 11.5211 18.3107 11.9463 18.5953C12.3715 18.8799 12.7026 19.2842 12.898 19.757C13.0933 20.2299 13.1439 20.7501 13.0434 21.2517C12.943 21.7534 12.696 22.2139 12.3337 22.5752C11.9713 22.9364 11.51 23.182 11.0081 23.2809C10.5061 23.3798 9.98608 23.3276 9.51382 23.1309C9.04155 22.9341 8.63826 22.6017 8.355 22.1756C8.07173 21.7496 7.92123 21.2491 7.92252 20.7375C7.92322 20.052 8.19586 19.3947 8.6806 18.91C9.16535 18.4252 9.82261 18.1526 10.5081 18.1519L10.5095 18.1584ZM35.7318 27.3906C35.602 28.114 35.3148 28.8002 34.8905 29.4003C34.4661 30.0005 33.915 30.5 33.2761 30.8634C31.9506 31.507 30.5153 31.894 29.0459 32.004C28.2164 32.1234 27.3593 32.2468 26.5207 32.4542C24.288 33.1007 22.1317 33.9865 20.0894 35.0962C15.9367 37.1582 12.3456 38.9393 8.9699 36.5964C6.49321 34.8797 6.6074 31.7034 6.89615 29.9631C7.23595 28.3793 7.80267 26.8528 8.57877 25.431L8.93315 24.6973C9.2857 24.8383 9.65567 24.931 10.033 24.9729C9.69897 26.1528 9.79231 27.4128 10.2966 28.5306C10.8009 29.6484 11.6837 30.5522 12.7893 31.0826L13.1108 31.248L13.4508 31.1272C15.3469 30.4428 17.0792 29.3699 18.5367 27.9772C19.4994 27.0716 20.3451 26.0491 21.0541 24.9336C21.9612 25.0715 22.8886 24.9125 23.6979 24.4802C24.5072 24.0479 25.1551 23.3656 25.5448 22.5349C25.9345 21.7042 26.0452 20.7698 25.8603 19.8711C25.6755 18.9724 25.205 18.1575 24.5191 17.5481L27.194 12.1393L29.8964 17.6518C29.1275 18.3928 28.6655 19.396 28.6023 20.462C28.5391 21.528 28.8792 22.5788 29.5551 23.4055C30.2311 24.2322 31.1933 24.7744 32.2506 24.9242C33.3079 25.0741 34.3829 24.8206 35.2619 24.2143C35.7493 25.1981 35.9124 26.3109 35.7278 27.3932L35.7318 27.3906Z" fill="#A86338"/>
</svg>
